X:1
T:B minor Samuel Holyoke, 1791
T:Henry Alline, 1786          88. 88. (L. M.)
T:Vienna Transcribed from Harmonia Americana, 1791.
%%score [ 1 2 3 ]
L:1/8
Q:1/4=60
M:4/4
K:D
V:1 treble nm="Tr." snm="Tr."
V:2 treble-8 nm="T." snm="T."
V:3 bass nm="B." snm="B."
V:1
 B2 | F2 F2 G>A Bd | cB ed c2 B2 | B2 ^A2 F2 F2 | F2 E2 F2 z ^A | ^A2 B2 c2 d2 | c2 B2 ^A2 z f | %7
w: 1.~~O|how dis- tres- * sing *|was * the * scene, When|soon I thought to|take my flight, With|but a flut- tering|breath be- tween My|
 e2 d2 c2 c2 | B2 ^A2 B2 z2 | z2 B2 [Fc]2 [Fc]2 | [Fc]2 B2 d2 e2 | f4 z2 B2 | c2 B2 ^A3 B | %13
w: soul in ev- er-|las- ting night.|My was- ting|bo- dy racked with|pain, And|lin- gering on the|
 ^A2 d2 c4 | z2 d2 d2 d2 | d2 d2 d2 cB | ^A4 z2 A2 | B2 c2 c2 d>c | B2 ^A2 B4 |] %19
w: verge of death;|All helps to|save my soul were *|vain, Or|yet to leng- then *|out my breath.|
V:2
 F2 | B>c d>c B2 f2 | ed cB ^A2 B2 | d2 c2 B2 ^A2 | BA G2 F2 z ^A | c2 d2 e2 f2 | e2 d2 c2 z d | %7
w: 2.~~But|in * that * most dis-|tres- * sing * hour When|all my soul was|torn * with grief, Je-|sus with his al-|migh- ty power Ap-|
 c2 B2 ^A2 F2 | d2 c2 B2 z2 | z2 F2 ^A2 A2 | ^A2 F2 B2 c2 | d4 z2 d2 | e2 d2 c3 d | c2 B2 ^A4 | %14
w: peared in love to|my re- lief.|O what a|friend did he ap-|pear To|my des- pai- ring|guil- ty soul!|
 z2 F2 B2 B2 | B2 f2 f2 ed | c4 z2 c2 | d2 e2 f2 B>c | d2 Tc2 B4 |] %19
w: His good- ness|ba- nished all my *|fear, And|made my woun- ded *|con- science whole.|
V:3
 B,,2 | B,,2 B,,2 E,2 B,,2 | D,2 E,2 F,2 B,,2 | B,2 F,2 B,,2 F,2 | B,,2 C,2 F,3 F, | %5
w: 3.~~Ten|thou- sand tongues can|ne'er ex- press The|great- ness of his|love to me; He|
 F,E, D,2 C,2 B,,2 | A,,2 D,E, F,2 z D, | E,2 B,,2 G,2 ^A,2 | B,2 F,2 B,,2 z2 | z2 B,,2 F,2 F,2 | %10
w: brought * my soul from|deep dis- * tress, And|bid me drink of|plea- sures free.|O Je- sus,|
 F,2 F,>E, D,2 C,2 | B,,4 z2 B,2 | ^A,2 B,2 F,3 F, | F,2 B,,2 F,4 | z2 B,,2 D,2 F,2 | %15
w: let me * ne'er for-|get The|scenes of that im-|por- tant hour;|I love re-|
 B,2 B,,2 D,2 ^E,2 | F,4 z2 F,2 | B,2 ^A,2 F,2 B,2 | %18
w: demp- tion from the|pit, But|O! I love thy|
"^__________________________________________\nEdited by B. C. Johnston, 2016\n   1. Top and middle staffs exchanged.\n   2. Measure 5, Tenor: last note changed from B to A#, as in Treble." D,E, F,2 B,,4 |] %19
w: good- * ness more.|

